X:600
T:Tar Road to Sligo, The
T:Coleman's
R:jig
D:Bothy Band 1975
Z:Transcribed by Henrik Norbeck: hn-jig-70
M:6/8
D:asin=B000000PX2(Dervish: At The End Of The Day)
D:asin=B000000PX6(Alan Kelly: Out Of The Blue)
D:asin=B000000X74(Joanie Madden: Song Of The Irish Whistle)
D:asin=B000005CP4(James Keane: That's The Spirit)
D:asin=B000005CPW(Joe Derrane: Return To Inis Mor)
D:asin=B000005CS0(The Bothy Band: 1975: The First Album)
D:asin=B000005CU6(The Bothy Band: BBC Radio One: The Bothy Band Live In Concert)
D:anop=B0000088UA(Billy Bragg: BBC Live in Concert [IMPORT])
K:D
fdB Bcd|ecA BAG|FGA ABc|dcd efg|fdB Bcd|ecA BAG|FGA Aag|1 fdc d2e :|2 fdc d2B\
|:Adf Adf|~g3 efg|afd dcd|Bed cBA|1 Adf Adf|~g3 efg|afd bge|\
edc d2B:|2 fdB gec|afd bge|~a3 bge|edc d2e||
